images/google-icon.svg

<svg width="41" height="41" viewBox="0 0 41 41" fill="none" xmlns="http://www.w3.org/2000/svg">
<rect width="41" height="41" rx="8" fill="#F2F2F2"/>
<path d="M14.4324 23.0862L13.7362 25.6852L11.1918 25.739C10.4313 24.3286 10 22.7148 10 21C10 19.3418 10.4033 17.778 11.1181 16.4011H11.1187L13.384 16.8164L14.3763 19.0681C14.1686 19.6736 14.0554 20.3236 14.0554 21C14.0555 21.7341 14.1885 22.4374 14.4324 23.0862Z" fill="#FBBB00"/>
<path d="M29.8253 19.1319C29.9401 19.7368 30 20.3615 30 21C30 21.7159 29.9247 22.4143 29.7813 23.0879C29.2945 25.3802 28.0225 27.3819 26.2605 28.7984L26.2599 28.7978L23.4066 28.6522L23.0028 26.1313C24.172 25.4456 25.0858 24.3725 25.5671 23.0879H20.2198V19.1319H29.8253Z" fill="#518EF8"/>
<path d="M26.2599 28.7978L26.2604 28.7984C24.5467 30.1758 22.3698 31 20 31C16.1918 31 12.8808 28.8715 11.1918 25.739L14.4324 23.0863C15.2769 25.3401 17.4511 26.9445 20 26.9445C21.0956 26.9445 22.122 26.6484 23.0027 26.1313L26.2599 28.7978Z" fill="#28B446"/>
<path d="M26.383 13.3022L23.1434 15.9544C22.2319 15.3846 21.1544 15.0555 20 15.0555C17.3934 15.0555 15.1786 16.7335 14.3764 19.0681L11.1187 16.4011H11.1181C12.7824 13.1923 16.1352 11 20 11C22.4264 11 24.6511 11.8643 26.383 13.3022Z" fill="#F14336"/>
</svg>

<svg xmlns="http://www.w3.org/2000/svg" width="41" height="41" fill="none"><rect width="41" height="41" fill="#F2F2F2" rx="8"/><path fill="#FBBB00" d="m14.432 23.086-.696 2.6-2.544.053A9.955 9.955 0 0 1 10 21c0-1.658.403-3.222 1.118-4.599l2.266.415.992 2.252a5.944 5.944 0 0 0-.32 1.932c0 .734.133 1.437.376 2.086Z"/><path fill="#518EF8" d="M29.825 19.132a10.018 10.018 0 0 1-.044 3.956 9.998 9.998 0 0 1-3.52 5.71h-.001l-2.853-.146-.404-2.52a5.96 5.96 0 0 0 2.564-3.044H20.22v-3.956h9.605Z"/><path fill="#28B446" d="M26.26 28.798A9.958 9.958 0 0 1 20 31a9.998 9.998 0 0 1-8.808-5.261l3.24-2.653a5.946 5.946 0 0 0 8.57 3.045l3.258 2.667Z"/><path fill="#F14336" d="m26.383 13.302-3.24 2.652a5.948 5.948 0 0 0-8.767 3.114l-3.257-2.667A9.998 9.998 0 0 1 20 11c2.426 0 4.651.864 6.383 2.302Z"/></svg>
